aloe_vera/img/advantages_3.svg

<svg width="65" height="65" viewBox="0 0 65 65" fill="none" xmlns="http://www.w3.org/2000/svg">
<g clip-path="url(#clip0)">
<path d="M27.412 64.0459H21.3063L20.2886 56.9227H28.4295L27.412 64.0459Z" fill="#E1E1DA"/>
<path d="M20.2886 56.9227L21.3063 64.0459H24.3591L23.3415 56.9227H20.2886Z" fill="#D2D2C8"/>
<path d="M32.5 52.8522L28.4295 56.9227H20.2886L16.2183 52.8522L12.1478 16.2183H36.5705L32.5 52.8522Z" fill="#75E0F1"/>
<path d="M16.2183 16.2183H12.1478L16.2183 52.8522L20.2886 56.9227H24.3591L20.2886 52.8522L16.2183 16.2183Z" fill="#53D9ED"/>
<path d="M36.5705 12.1478H12.1478V16.2183H36.5705V12.1478Z" fill="#BAF0F8"/>
<path d="M16.2183 12.1478H12.1478V16.2183H16.2183V12.1478Z" fill="#98E8F4"/>
<path d="M48.7819 0.954041H42.6762V17.2358H48.7819V0.954041Z" fill="#F0F0ED"/>
<path d="M50.8171 64.0459H47.7642C46.6402 64.0459 45.7291 63.1348 45.7291 62.0107V36.5706L48.7818 32.5V0.954041H50.817C51.941 0.954041 52.8522 1.86518 52.8522 2.98923V62.0107C52.8523 63.1348 51.9411 64.0459 50.8171 64.0459Z" fill="#FFCA58"/>
<path d="M48.7817 62.0107V36.5706L51.8346 32.5V1.99176C51.8346 1.43075 51.3891 0.957087 50.8281 0.954041C50.8244 0.954041 50.8207 0.954041 50.817 0.954041H48.7817V32.5L45.7289 36.5706V62.0107C45.7289 63.1348 46.64 64.0459 47.7641 64.0459H50.8169C49.693 64.0459 48.7817 63.1347 48.7817 62.0107Z" fill="#FFBD2E"/>
<path d="M30.2431 29.108C30.2431 27.4182 28.8204 26.0483 26.7127 26.0483C25.7663 26.0483 24.9277 26.5502 24.3665 27.2252C23.8052 26.5503 22.9518 26.0483 22.0055 26.0483C19.8979 26.0483 18.4751 27.4182 18.4751 29.108C18.4751 32.8738 20.9547 32.4554 20.1226 34.2861C18.9457 36.8752 20.1362 40.641 21.0639 40.641C22.0053 40.641 21.77 35.4629 24.3591 35.4629C26.9482 35.4629 26.7127 40.641 27.6543 40.641C28.5822 40.641 29.7727 36.8752 28.5957 34.2861C27.7635 32.4553 30.2431 32.8738 30.2431 29.108Z" fill="#FFEFCF"/>
<path d="M22.3507 33.7773C23.1829 31.9466 20.7033 32.3651 20.7033 28.5992C20.7033 27.1632 21.7312 25.9587 23.3334 25.6292C23.1108 25.5712 22.8791 25.5396 22.6416 25.5396C20.5339 25.5396 19.1111 26.9094 19.1111 28.5992C19.1111 32.3651 21.5908 31.9466 20.7586 33.7773C19.5818 36.3664 20.7722 40.1322 21.7 40.1322C21.9861 40.1322 22.1636 39.6532 22.3448 38.9869C21.8244 37.6699 21.5805 35.4717 22.3507 33.7773Z" fill="#FFE5AB"/>
<path d="M26.5872 34.9542C26.2854 34.9542 26.0225 35.0253 25.7912 35.1495C27.5449 36.0917 27.4586 40.1322 28.2901 40.1322C28.6108 40.1322 28.9626 39.6823 29.2375 38.987C28.8228 37.4617 28.3892 34.9542 26.5872 34.9542Z" fill="#FFE5AB"/>
<path d="M36.5705 11.1937H12.1478C11.6208 11.1937 11.1937 11.6208 11.1937 12.1478V16.2183C11.1937 16.219 11.1939 16.2198 11.1939 16.2206C11.1939 16.2306 11.195 16.2407 11.1954 16.2508C11.1961 16.2741 11.1969 16.2977 11.1994 16.3206C11.1994 16.3206 11.1994 16.3225 11.1996 16.3234L15.2701 52.9575C15.2939 53.1727 15.3904 53.3735 15.5435 53.5269L19.3892 57.3724L20.3618 64.1808C20.4289 64.6508 20.8314 64.9999 21.3063 64.9999H27.412C27.8867 64.9999 28.2891 64.6509 28.3565 64.1808L29.3291 57.3724L33.1748 53.5269C33.3279 53.3736 33.4244 53.1729 33.4482 52.9575L37.5187 16.3234C37.5189 16.3225 37.5187 16.3215 37.5187 16.3215C37.5213 16.2976 37.522 16.274 37.5228 16.2507C37.5232 16.2405 37.5243 16.2305 37.5243 16.2204C37.5243 16.2197 37.5244 16.2189 37.5244 16.2181V12.1477C37.5244 11.6208 37.0975 11.1937 36.5705 11.1937ZM13.1018 13.1018H35.6165V15.2642H13.1018V13.1018ZM26.5845 63.092H22.1338L21.3888 57.8768H27.3297L26.5845 63.092ZM31.5887 52.4143L28.0344 55.9687H20.6839L17.1295 52.4143L13.2137 17.1722H35.5045L31.5887 52.4143Z" fill="black"/>
<path d="M52.8523 49.8625C53.3792 49.8625 53.8063 49.4354 53.8063 48.9084V2.98924C53.8063 1.34101 52.4653 0 50.8171 0H40.6409C40.1139 0 39.6868 0.42707 39.6868 0.954053C39.6868 1.48104 40.1139 1.90811 40.6409 1.90811H41.7221V4.0705H40.6409C40.1139 4.0705 39.6868 4.49757 39.6868 5.02455C39.6868 5.55153 40.1139 5.9786 40.6409 5.9786H41.7221V8.141H40.6409C40.1139 8.141 39.6868 8.56807 39.6868 9.09505C39.6868 9.62203 40.1139 10.0491 40.6409 10.0491H41.7221V12.2115H40.6409C40.1139 12.2115 39.6868 12.6386 39.6868 13.1655C39.6868 13.6925 40.1139 14.1196 40.6409 14.1196H41.7221V16.282H40.6409C40.1139 16.282 39.6868 16.7091 39.6868 17.236C39.6868 17.763 40.1139 18.1901 40.6409 18.1901H47.8278V32.1822L44.9658 35.9984C44.8419 36.1636 44.775 36.3645 44.775 36.5709V62.011C44.775 63.6592 46.116 65.0003 47.7642 65.0003H50.8171C52.4653 65.0003 53.8063 63.6592 53.8063 62.011V53.3618C53.8063 52.8348 53.3792 52.4078 52.8523 52.4078C52.3253 52.4078 51.8982 52.8348 51.8982 53.3618V62.011C51.8982 62.6072 51.4132 63.0923 50.8169 63.0923H47.7641C47.1679 63.0923 46.6828 62.6073 46.6828 62.011V36.8886L49.5449 33.0724C49.6688 32.9073 49.7357 32.7064 49.7357 32.5V1.90798H50.8169C51.4131 1.90798 51.8982 2.39294 51.8982 2.98924V48.9084C51.8982 49.4355 52.3253 49.8625 52.8523 49.8625ZM43.6301 1.90798H47.8278V4.07037H43.6301V1.90798ZM43.6301 5.97848H47.8278V8.14087H43.6301V5.97848ZM43.6301 10.049H47.8278V12.2114H43.6301V10.049ZM43.6301 16.2817V14.1193H47.8278V16.2817H43.6301Z" fill="black"/>
<path d="M19.254 33.8913C18.1806 36.2525 18.7869 39.3393 19.6372 40.6598C20.1349 41.4327 20.6878 41.5949 21.0641 41.5949C22.1586 41.5949 22.4528 40.4465 22.7641 39.2307C23.1437 37.7478 23.5513 36.417 24.3591 36.417C25.1668 36.417 25.5746 37.7478 25.9542 39.2307C26.2655 40.4466 26.5596 41.5949 27.6542 41.5949C28.0305 41.5949 28.5834 41.4328 29.081 40.6598C29.9314 39.3393 30.5374 36.2525 29.4643 33.8913C29.3353 33.6078 29.3353 33.6078 29.7075 33.1855C30.3008 32.5123 31.1973 31.4948 31.1973 29.1079C31.1973 26.8199 29.2694 25.0942 26.7128 25.0942C25.8779 25.0942 25.0593 25.3845 24.366 25.9115C23.6707 25.3846 22.8475 25.0942 22.0057 25.0942C19.4491 25.0942 17.5212 26.8197 17.5212 29.1079C17.5212 31.4948 18.4177 32.5122 19.011 33.1855C19.3829 33.6078 19.3829 33.6078 19.254 33.8913ZM22.0055 27.0023C22.5911 27.0023 23.1993 27.3136 23.633 27.8351C24.0086 28.2869 24.7245 28.2869 25.1 27.8351C25.5402 27.306 26.128 27.0023 26.7128 27.0023C28.2057 27.0023 29.2894 27.8879 29.2894 29.1079C29.2894 30.7741 28.7511 31.385 28.2759 31.924C27.7743 32.4934 27.0874 33.2729 27.7273 34.6807C28.351 36.0525 28.1544 37.782 27.8246 38.8423C27.8171 38.8134 27.8098 38.7849 27.8027 38.7572C27.396 37.1683 26.7149 34.5089 24.3594 34.5089C22.0039 34.5089 21.3228 37.1683 20.916 38.7572C20.9089 38.7849 20.9017 38.8134 20.8942 38.8423C20.5644 37.782 20.3677 36.0525 20.9914 34.6807C21.6313 33.2729 20.9443 32.4933 20.4429 31.924C19.9679 31.3851 19.4294 30.7739 19.4294 29.1079C19.429 27.8879 20.5127 27.0023 22.0055 27.0023Z" fill="black"/>
</g>
<defs>
<clipPath id="clip0">
<rect width="65" height="65" fill="white"/>
</clipPath>
</defs>
</svg>

<svg width="65" height="65" fill="none" xmlns="http://www.w3.org/2000/svg"><g clip-path="url(#clip0)"><path d="M27.412 64.046h-6.106l-1.017-7.123h8.14l-1.017 7.123z" fill="#E1E1DA"/><path d="M20.289 56.923l1.017 7.123h3.053l-1.018-7.123H20.29z" fill="#D2D2C8"/><path d="M32.5 52.852l-4.07 4.07h-8.141l-4.07-4.07-4.071-36.634H36.57L32.5 52.852z" fill="#75E0F1"/><path d="M16.218 16.218h-4.07l4.07 36.634 4.07 4.07h4.071l-4.07-4.07-4.07-36.634z" fill="#53D9ED"/><path d="M36.57 12.148H12.149v4.07H36.57v-4.07z" fill="#BAF0F8"/><path d="M16.218 12.148h-4.07v4.07h4.07v-4.07z" fill="#98E8F4"/><path d="M48.782.954h-6.106v16.282h6.106V.954z" fill="#F0F0ED"/><path d="M50.817 64.046h-3.053a2.035 2.035 0 01-2.035-2.035V36.57l3.053-4.071V.954h2.035c1.124 0 2.035.911 2.035 2.035v59.022a2.035 2.035 0 01-2.035 2.035z" fill="#FFCA58"/><path d="M48.782 62.01V36.57l3.053-4.07V1.992c0-.561-.446-1.035-1.007-1.038h-2.046V32.5l-3.053 4.07v25.44c0 1.125.911 2.036 2.035 2.036h3.053a2.035 2.035 0 01-2.035-2.035z" fill="#FFBD2E"/><path d="M30.243 29.108c0-1.69-1.423-3.06-3.53-3.06-.947 0-1.785.502-2.347 1.177-.56-.675-1.414-1.177-2.36-1.177-2.108 0-3.53 1.37-3.53 3.06 0 3.766 2.479 3.347 1.647 5.178-1.177 2.59.013 6.355.94 6.355.942 0 .707-5.178 3.296-5.178 2.59 0 2.354 5.178 3.295 5.178.928 0 2.119-3.766.942-6.355-.832-1.83 1.647-1.412 1.647-5.178z" fill="#FFEFCF"/><path d="M22.35 33.777c.833-1.83-1.647-1.412-1.647-5.178 0-1.436 1.028-2.64 2.63-2.97a2.74 2.74 0 00-.691-.09c-2.108 0-3.53 1.37-3.53 3.06 0 3.766 2.479 3.348 1.647 5.178-1.177 2.59.013 6.355.941 6.355.286 0 .464-.479.645-1.145-.52-1.317-.764-3.515.006-5.21zm4.237 1.177c-.302 0-.564.071-.796.196 1.754.942 1.668 4.982 2.5 4.982.32 0 .672-.45.947-1.145-.415-1.525-.849-4.033-2.65-4.033z" fill="#FFE5AB"/><path d="M36.57 11.194H12.149a.954.954 0 00-.954.954v4.073l.001.03a.896.896 0 00.005.072l4.07 36.635a.95.95 0 00.274.569l3.845 3.845.973 6.809c.067.47.47.819.944.819h6.106a.954.954 0 00.945-.82l.972-6.808 3.846-3.845a.954.954 0 00.273-.57l4.07-36.634v-.002c.003-.023.004-.047.005-.07l.001-.03v-4.073a.954.954 0 00-.953-.954zm-23.468 1.908h22.515v2.162H13.102v-2.162zm13.482 49.99h-4.45l-.745-5.215h5.94l-.745 5.215zm5.005-10.678l-3.555 3.555h-7.35l-3.555-3.555-3.915-35.242h22.29L31.59 52.414zm21.263-2.552a.954.954 0 00.954-.954V2.99A2.993 2.993 0 0050.817 0H40.641a.954.954 0 100 1.908h1.081v2.163h-1.081a.954.954 0 100 1.908h1.081V8.14h-1.081a.954.954 0 100 1.908h1.081v2.162h-1.081a.954.954 0 100 1.909h1.081v2.162h-1.081a.954.954 0 100 1.908h7.187v13.992l-2.862 3.816a.954.954 0 00-.191.573v25.44a2.993 2.993 0 002.99 2.99h3.052a2.993 2.993 0 002.99-2.99v-8.65a.954.954 0 10-1.909 0v8.65c0 .596-.485 1.081-1.081 1.081h-3.053a1.083 1.083 0 01-1.081-1.081V36.889l2.862-3.817a.954.954 0 00.19-.572V1.908h1.082c.596 0 1.081.485 1.081 1.081v45.92c0 .526.427.953.954.953zM43.63 1.908h4.198V4.07H43.63V1.908zm0 4.07h4.198v2.163H43.63V5.978zm0 4.071h4.198v2.162H43.63V10.05zm0 6.233v-2.163h4.198v2.163H43.63z" fill="#000"/><path d="M19.254 33.891c-1.073 2.361-.467 5.448.383 6.769.498.773 1.05.935 1.427.935 1.095 0 1.389-1.148 1.7-2.364.38-1.483.787-2.814 1.595-2.814.808 0 1.216 1.33 1.595 2.814.311 1.216.606 2.364 1.7 2.364.377 0 .93-.162 1.427-.935.85-1.32 1.456-4.407.383-6.769-.129-.283-.129-.283.244-.706.593-.673 1.49-1.69 1.49-4.077 0-2.288-1.929-4.014-4.485-4.014-.835 0-1.654.29-2.347.817a3.912 3.912 0 00-2.36-.817c-2.557 0-4.485 1.726-4.485 4.014 0 2.387.897 3.404 1.49 4.077.372.423.372.423.243.706zm2.752-6.889c.585 0 1.193.312 1.627.833a.963.963 0 001.467 0c.44-.529 1.028-.833 1.613-.833 1.493 0 2.576.886 2.576 2.106 0 1.666-.538 2.277-1.013 2.816-.502.57-1.189 1.349-.549 2.757.624 1.372.427 3.101.098 4.161l-.022-.085c-.407-1.589-1.088-4.248-3.444-4.248-2.355 0-3.036 2.66-3.443 4.248l-.022.085c-.33-1.06-.526-2.79.097-4.161.64-1.408-.047-2.188-.548-2.757-.475-.539-1.014-1.15-1.014-2.816 0-1.22 1.084-2.106 2.577-2.106z" fill="#000"/></g><defs><clipPath id="clip0"><path fill="#fff" d="M0 0h65v65H0z"/></clipPath></defs></svg>
